X:327
T: WAS KANN SCHOENER SEIN
N: E1480
O: Europa, Mitteleuropa, Schweiz, Emmenthal
R: Staende -, Hirten -, Alpen - Lied, Kuhreihen
M: 3/4
L: 1/16
K: G
 | G2A2BcBAG4 | B2c2dedcB4 |
d2d2c2c2B2B2 | A3cB4z4 |
G2A2BcBAG4 | B2c2dedcB4 |
d2d2c2c2B2B2 | A3cB4z4 |
d3cB6d2 | c2B2A4A4 |
d3cB6d2 | c2B2A4A4 |
G3ABcBAG4 | B3cdedcB4 |
d2d2c2c2B2B2 | A3cB4z4

@@@ Tune index: 5011
